X:321
T:Reel 321
M:4/4
K:Amin
L:1/8
CD|EA,G,A, B,G, (3G,A,G, |A,G, (3G,G,G, D,>G, (3G,G,G, |E,A,A,B, CB,CD|EGAB GED2|CB,CD E2GE|G,G,G,G, B,CDB,|A,B,CD EDE^F|GEDB, A,2|AB|cBAG EAGE|DB,G,B, A,B,ED|CB,CD EFGE|DB,GB, A,2ED|CB,CD E2EF|GE (3FGA BGAB|cBA^F GEDG|EAA,G, A,2|
